X:2429
T:Calla Herring. CJF.085
M:C|
L:1/8
Q:160
S: C.J.Fox MS, 1829/33, Beverley,E.Yorks.
R:Air
O:England
A:East Yorkshire
B:Kidson Coll.Mitchell Lib.M1805
Z:P J Headford 2000
K:D
"pia"A|d2d>dc2dz/e/|fB e>d cABc|d2d>dc2dz/e/|\
fdecd3:|:!d'|.c'.b.a.g .f.e.d.d'|.c'.b.a.g .f.e.d.d'|
.c'.b.a.g f(fga)|b>B e>d cABc|!d2d>d(c2d)z?e/|\
fB e>d cABc|d2d>dc2dz/e/|f>g e>dd2:|:!a|d'2d'>d'c'2
d'z/a/|(bagf) efg^g|a2a>a^g2az/b/|c'>d'b>a a3f|!\
g2g>gf2gz/a/|bB e>d cABc|d2d>d(c2d)(b/g/)|f>g e>dd2:||


